build/assets/fonts/a09152e75acbfee13fe82e13c54a77ad.svg

<svg width="100" height="60" viewBox="0 0 100 60" version="1.1" xmlns="http://www.w3.org/2000/svg" xmlns:xlink="http://www.w3.org/1999/xlink"><title>Visa-light</title><desc>Created with Sketch.</desc><g id="Light-Payment-badges" stroke="none" stroke-width="1" fill="none" fill-rule="evenodd" transform="translate(-130.000000, -164.000000)"><g id="Visa-light" transform="translate(130.000000, 164.000000)"><rect id="Rectangle" fill="#FFF" x="0" y="0" width="100" height="60" rx="4"/><polyline id="Fill-1" fill="#26337A" points="41.4899908 39.5467606 44.5647281 20.4726761 49.4795853 20.4726761 46.405129 39.5467606 41.4899908 39.5467606"/><path d="M64.232871,20.9408451 C63.2610876,20.5580282 61.7327143,20.1405634 59.8287834,20.1405634 C54.9695853,20.1405634 51.5490876,22.7290141 51.5206959,26.435493 C51.4897742,29.1771831 53.9615392,30.7061972 55.8249908,31.6174648 C57.7401659,32.5515493 58.3836175,33.1492958 58.3760276,33.984507 C58.3628157,35.2619718 56.8473733,35.8473239 55.4342535,35.8473239 C53.4665115,35.8473239 52.4210783,35.5591549 50.8047189,34.8470423 L50.1725115,34.5433803 L49.4852074,38.8129577 C50.6312765,39.3442254 52.7558756,39.8053521 54.960871,39.8295775 C60.1250691,39.8295775 63.4806313,37.2723944 63.5199862,33.3143662 C63.5376959,31.1402817 62.228023,29.4923944 59.3916636,28.131831 C57.674106,27.2473239 56.6199585,26.6614085 56.6320461,25.7661972 C56.6331705,24.9735211 57.5225899,24.1247887 59.4476037,24.1247887 C61.0552488,24.0988732 62.2190276,24.4701408 63.1258756,24.8577465 L63.567212,25.0757746 L64.232871,20.9408451" id="Fill-2" fill="#26337A"/><path d="M70.7772995,32.7842254 C71.1846221,31.6878873 72.7352028,27.4526761 72.7352028,27.4526761 C72.70653,27.5030986 73.1402765,26.3478873 73.3884931,25.6329577 L73.7201982,27.2780282 C73.7201982,27.2780282 74.6633088,31.8307042 74.857553,32.7842254 L70.7772995,32.7842254 L70.7772995,32.7842254 Z M76.8407558,20.4921127 L73.0424516,20.4921127 C71.8643364,20.4921127 70.9825069,20.8295775 70.4663963,22.0732394 L63.1674793,39.5535211 L68.3297097,39.5535211 C68.3297097,39.5535211 69.1719032,37.2019718 69.3630553,36.6859155 C69.9261106,36.6859155 74.9421659,36.6957746 75.6581429,36.6957746 C75.8054424,37.3614085 76.2566175,39.5535211 76.2566175,39.5535211 L80.8184055,39.5535211 L76.8407558,20.4921127 L76.8407558,20.4921127 Z" id="Fill-3" fill="#26337A"/><path d="M37.3667281,20.4887324 L32.5561613,33.4926761 L32.040894,30.8492958 C31.144447,27.803662 28.3539078,24.5025352 25.2325069,22.8484507 L29.6335023,39.5301408 L34.8350876,39.5270423 L42.5750599,20.4887324 L37.3667281,20.4887324" id="Fill-4" fill="#26337A"/><path d="M28.0905115,20.4757746 L20.1647281,20.4757746 L20.0995115,20.8709859 C26.2666959,22.4509859 30.3472304,26.2647887 32.040894,30.8492958 L30.3185576,22.0850704 C30.0214286,20.876338 29.157871,20.5180282 28.0905115,20.4757746" id="Fill-5" fill="#EC982D"/></g></g></svg>

<svg width="100" height="60" xmlns="http://www.w3.org/2000/svg"><g fill="none" fill-rule="evenodd"><rect fill="#FFF" width="100" height="60" rx="4"/><path fill="#26337A" d="M41.49 39.547l3.075-19.074h4.915l-3.075 19.074H41.49M64.233 20.94c-.972-.382-2.5-.8-4.404-.8-4.86 0-8.28 2.589-8.308 6.295-.031 2.742 2.44 4.271 4.304 5.182 1.915.935 2.559 1.532 2.551 2.368-.013 1.277-1.529 1.862-2.942 1.862-1.967 0-3.013-.288-4.63-1l-.631-.304-.688 4.27c1.146.531 3.27.992 5.476 1.017 5.164 0 8.52-2.558 8.559-6.516.018-2.174-1.292-3.822-4.128-5.182-1.718-.885-2.772-1.47-2.76-2.366.001-.792.89-1.641 2.816-1.641a8.62 8.62 0 0 1 3.678.733l.441.218.666-4.135m6.544 11.843c.408-1.096 1.958-5.331 1.958-5.331-.028.05.405-1.105.653-1.82l.332 1.645s.943 4.553 1.138 5.506h-4.08zm6.064-12.292h-3.799c-1.178 0-2.06.338-2.576 1.581l-7.299 17.48h5.163s.842-2.351 1.033-2.867c.563 0 5.58.01 6.295.01.147.665.599 2.858.599 2.858h4.561l-3.977-19.062zm-39.474-.003l-4.81 13.004-.516-2.644c-.897-3.045-3.687-6.346-6.808-8l4.4 16.681 5.202-.003 7.74-19.038h-5.208"/><path d="M28.09 20.476h-7.925l-.065.395c6.167 1.58 10.247 5.394 11.94 9.978l-1.721-8.764c-.298-1.209-1.161-1.567-2.228-1.61" fill="#EC982D"/></g></svg>
